Catalina-light/actions/22/tab-duplicate.svg

<?xml version="1.0" encoding="UTF-8" standalone="no"?>
<svg
   xmlns:dc="http://purl.org/dc/elements/1.1/"
   xmlns:cc="http://creativecommons.org/ns#"
   xmlns:rdf="http://www.w3.org/1999/02/22-rdf-syntax-ns#"
   xmlns:svg="http://www.w3.org/2000/svg"
   xmlns="http://www.w3.org/2000/svg"
   xmlns:sodipodi="http://sodipodi.sourceforge.net/DTD/sodipodi-0.dtd"
   xmlns:inkscape="http://www.inkscape.org/namespaces/inkscape"
   viewBox="0 0 22 22"
   id="svg3197"
   version="1.1"
   inkscape:version="0.91 r13725"
   sodipodi:docname="tab-duplicate.svg">
  <metadata
     id="metadata3205">
    <rdf:RDF>
      <cc:Work
         rdf:about="">
        <dc:format>image/svg+xml</dc:format>
        <dc:type
           rdf:resource="http://purl.org/dc/dcmitype/StillImage" />
      </cc:Work>
    </rdf:RDF>
  </metadata>
  <sodipodi:namedview
     pagecolor="#ffffff"
     bordercolor="#666666"
     borderopacity="1"
     objecttolerance="10"
     gridtolerance="10"
     guidetolerance="10"
     inkscape:pageopacity="0"
     inkscape:pageshadow="2"
     inkscape:window-width="640"
     inkscape:window-height="480"
     id="namedview3203"
     showgrid="false"
     inkscape:zoom="28.954545"
     inkscape:cx="4.8524333"
     inkscape:cy="11"
     inkscape:current-layer="svg3197" />
  <defs
     id="defs3051">
    <style
       type="text/css"
       id="current-color-scheme">
      .ColorScheme-Text {
        color:#4d4d4d
      }
      </style>
  </defs>
  <path
     style="color:#4d4d4d;fill:currentColor;fill-opacity:1;stroke:none"
     class="ColorScheme-Text"
     d="M 5.6666667,5.5555556 C 4.8081511,6.4892267 3.9238222,7.9851022 3,9.1111111 l 0,0.3559028 0,0.1770833 0,1.2447918 0,6.755208 C 3,17.841075 3.158925,18 3.3559028,18 L 18.644097,18 C 18.841075,18 19,17.841075 19,17.644097 L 19,9.4670139 19,9.1111111 C 18.076178,7.9851022 17.191849,6.4892267 16.333333,5.5555556 l -1.777777,0 -0.420139,0 -1.357639,0 C 12.198864,6.1851482 11.606583,7.0685316 11,7.9236111 10.393417,7.0685316 9.801136,6.1851482 9.2222222,5.5555556 l -1.3576389,0 -0.4201389,0 -1.7777777,0 z"
     id="path3201"
     inkscape:connector-curvature="0" />
</svg>

<svg version="1.1" viewBox="0 0 22 22" xmlns="http://www.w3.org/2000/svg">
<defs>
<style id="current-color-scheme" type="text/css">.ColorScheme-Text {
        color:#363636
      }</style>
</defs>
<path class="ColorScheme-Text" d="m5.6667 5.5556c-0.85852 0.93367-1.7428 2.4295-2.6667 3.5556v0.3559 0.17708 1.2448 6.7552c0 0.19698 0.15892 0.3559 0.3559 0.3559h15.288c0.19698 0 0.3559-0.15892 0.3559-0.3559v-8.1771-0.3559c-0.92382-1.126-1.8082-2.6219-2.6667-3.5556h-1.7778-0.42014-1.3576c-0.57891 0.62959-1.1712 1.513-1.7778 2.3681-0.60658-0.85508-1.1989-1.7385-1.7778-2.3681h-1.3576-0.42014-1.7778z" color="#363636" fill="#363636"/>
</svg>
